X: 1
T: Centenary, The
M: 6/8
L: 1/8
R: jig
K: Dmaj
|:FGA D2 D|EFE D2e|fed dcB|AEF G2G|
GBA GBA|F2d fed|cBA GFE|D3 D2E:|
|:F2F FED|f2f fed|d2d dcB|AEF G2G|
GBA GBA|F2d fed|cBA GFE|D3 D2E:|
